X:1
T:What Gavotte
C:Jens Wollschlger
O:Germany
M:4/4
L:1/8
K:Edor
|:BBABGFEE|FFAFG2E2:|
|(3BBBABdcB2|FFGABAF2|BBABGFEE|FFAFG2E2|
